src/images/accont_.svg

<svg width="100" height="32" viewBox="0 0 100 32" fill="none" xmlns="http://www.w3.org/2000/svg">
<path d="M12.8374 21H11.3232L14.7255 11.5455H16.3736L19.7759 21H18.2617L15.5888 13.2628H15.5149L12.8374 21ZM13.0913 17.2976H18.0032V18.4979H13.0913V17.2976ZM21.0305 21V13.9091H22.4108V16.8821H23.0756L25.4161 13.9091H27.1242L24.3774 17.3576L27.1565 21H25.4438L23.3064 18.1655H22.4108V21H21.0305ZM28.2287 21V13.9091H29.609V16.8821H30.2738L32.6143 13.9091H34.3224L31.5756 17.3576L34.3548 21H32.642L30.5046 18.1655H29.609V21H28.2287ZM37.4905 21.157C37.0412 21.157 36.6349 21.0739 36.2718 20.9077C35.9086 20.7384 35.6208 20.4937 35.4085 20.1737C35.1992 19.8536 35.0945 19.4612 35.0945 18.9964C35.0945 18.5964 35.1715 18.267 35.3254 18.0085C35.4793 17.75 35.687 17.5453 35.9486 17.3945C36.2102 17.2437 36.5026 17.1299 36.8257 17.0529C37.1489 16.976 37.4782 16.9175 37.8137 16.8775C38.2384 16.8282 38.5831 16.7882 38.8477 16.7575C39.1124 16.7236 39.3048 16.6697 39.4248 16.5959C39.5448 16.522 39.6048 16.402 39.6048 16.2358V16.2035C39.6048 15.8003 39.491 15.4879 39.2632 15.2663C39.0386 15.0447 38.7031 14.9339 38.2568 14.9339C37.7921 14.9339 37.4259 15.037 37.1581 15.2433C36.8934 15.4464 36.7103 15.6726 36.6088 15.9219L35.3115 15.6264C35.4654 15.1955 35.6901 14.8478 35.9855 14.5831C36.2841 14.3153 36.6272 14.1214 37.015 14.0014C37.4028 13.8783 37.8106 13.8168 38.2384 13.8168C38.5215 13.8168 38.8216 13.8506 39.1386 13.9183C39.4587 13.983 39.7572 14.103 40.0342 14.2784C40.3142 14.4538 40.5435 14.7047 40.722 15.0309C40.9005 15.354 40.9898 15.7741 40.9898 16.2912V21H39.6418V20.0305H39.5864C39.4971 20.209 39.3633 20.3845 39.1847 20.5568C39.0062 20.7292 38.777 20.8723 38.4969 20.9862C38.2168 21.1 37.8814 21.157 37.4905 21.157ZM37.7906 20.049C38.1722 20.049 38.4984 19.9736 38.7693 19.8228C39.0432 19.672 39.2509 19.475 39.3925 19.2319C39.5371 18.9857 39.6095 18.7225 39.6095 18.4425V17.5284C39.5602 17.5777 39.4648 17.6238 39.3232 17.6669C39.1847 17.7069 39.0262 17.7423 38.8477 17.7731C38.6692 17.8008 38.4954 17.8269 38.3261 17.8516C38.1568 17.8731 38.0152 17.8916 37.9014 17.907C37.6336 17.9408 37.3889 17.9978 37.1673 18.0778C36.9488 18.1578 36.7734 18.2732 36.6411 18.424C36.5118 18.5717 36.4472 18.7687 36.4472 19.0149C36.4472 19.3565 36.5734 19.6151 36.8257 19.7905C37.0781 19.9628 37.3997 20.049 37.7906 20.049ZM43.4469 23.6591C43.2407 23.6591 43.053 23.6422 42.8837 23.6083C42.7144 23.5775 42.5882 23.5437 42.5051 23.5067L42.8375 22.3757C43.0899 22.4434 43.3146 22.4727 43.5115 22.4634C43.7085 22.4542 43.8824 22.3803 44.0332 22.2418C44.1871 22.1033 44.3225 21.8771 44.4395 21.5632L44.6103 21.0923L42.0158 13.9091H43.4931L45.2889 19.4119H45.3627L47.1586 13.9091H48.6404L45.7182 21.9464C45.5828 22.3157 45.4105 22.6281 45.2012 22.8835C44.9919 23.142 44.7426 23.3359 44.4533 23.4652C44.164 23.5945 43.8285 23.6591 43.4469 23.6591ZM54.7434 16.859V18.0547H50.9025V16.859H54.7434ZM51.2903 13.9091V21H49.9377V13.9091H51.2903ZM55.7083 13.9091V21H54.3603V13.9091H55.7083ZM56.6754 15.1001V13.9091H62.6584V15.1001H60.3455V21H58.9975V15.1001H56.6754Z" fill="white"/>
<rect width="100" height="32" rx="16" fill="white" fill-opacity="0.01"/>
<rect x="71" y="3" width="26" height="26" rx="13" fill="white" fill-opacity="0.08"/>
<path fill-rule="evenodd" clip-rule="evenodd" d="M85.4296 17.9678C86.7914 17.4057 87.7499 16.0648 87.7499 14.5C87.7499 12.4289 86.0709 10.75 83.9999 10.75C81.9288 10.75 80.2499 12.4289 80.2499 14.5C80.2499 16.0647 81.2082 17.4056 82.57 17.9677C81.1753 18.1999 79.8924 18.7659 78.8081 19.5806L80.1897 21.4194C81.2509 20.6221 82.5685 20.15 83.9996 20.15C85.4307 20.15 86.7483 20.6221 87.8096 21.4194L89.1911 19.5806C88.1069 18.766 86.8241 18.2 85.4296 17.9678Z" fill="white"/>
</svg>

<svg width="100" height="32" fill="none" xmlns="http://www.w3.org/2000/svg"><path d="M12.837 21h-1.514l3.402-9.454h1.649L19.776 21h-1.514l-2.673-7.737h-.074L12.837 21zm.254-3.702h4.912v1.2h-4.912v-1.2zM21.031 21v-7.09h1.38v2.972h.665l2.34-2.973h1.708l-2.747 3.449L27.157 21h-1.713l-2.138-2.834h-.895V21h-1.38zm7.198 0v-7.09h1.38v2.972h.665l2.34-2.973h1.708l-2.746 3.449L34.355 21h-1.713l-2.137-2.834h-.896V21h-1.38zm9.261.157c-.449 0-.855-.083-1.218-.25a2.053 2.053 0 0 1-.864-.733c-.209-.32-.314-.713-.314-1.178 0-.4.078-.729.231-.987.154-.259.362-.464.624-.614.261-.151.554-.265.877-.342.323-.077.652-.136.988-.175l1.034-.12c.264-.034.457-.088.577-.162.12-.074.18-.194.18-.36v-.033c0-.403-.114-.715-.342-.937-.224-.221-.56-.332-1.006-.332-.465 0-.831.103-1.099.31-.265.202-.448.429-.55.678l-1.296-.296c.153-.43.378-.778.674-1.043a2.733 2.733 0 0 1 1.029-.582 4.02 4.02 0 0 1 1.223-.184c.284 0 .584.034.9.101.32.065.62.185.896.36.28.176.51.427.688.753.178.323.268.743.268 1.26V21h-1.348v-.97h-.056c-.089.179-.223.354-.401.527a2.133 2.133 0 0 1-.688.43c-.28.113-.616.17-1.007.17zm.3-1.108c.382 0 .708-.075.98-.226.273-.151.48-.348.622-.591.145-.246.217-.51.217-.79v-.914c-.049.05-.144.096-.286.139a4.46 4.46 0 0 1-.475.106l-.522.079-.425.055a3.42 3.42 0 0 0-.734.17 1.26 1.26 0 0 0-.526.347c-.13.148-.194.345-.194.59 0 .343.126.601.379.777.252.172.574.258.965.258zm5.657 3.61c-.206 0-.394-.017-.563-.05a1.77 1.77 0 0 1-.379-.102l.332-1.131c.253.067.478.097.674.087a.807.807 0 0 0 .522-.221c.154-.139.29-.365.407-.679l.17-.47-2.594-7.184h1.477l1.796 5.503h.074l1.796-5.503h1.481l-2.922 8.037c-.135.37-.308.682-.517.938-.21.258-.458.452-.748.581-.289.13-.625.194-1.006.194zm11.296-6.8v1.196h-3.84v-1.196h3.84zm-3.453-2.95V21h-1.352v-7.09h1.352zm4.418 0V21H54.36v-7.09h1.348zm.967 1.191v-1.19h5.983v1.19h-2.313V21h-1.347v-5.9h-2.323z" fill="#fff"/><rect width="100" height="32" rx="16" fill="#fff" fill-opacity=".01"/><rect x="71" y="3" width="26" height="26" rx="13" fill="#fff" fill-opacity=".08"/><path fill-rule="evenodd" clip-rule="evenodd" d="M85.43 17.968a3.751 3.751 0 1 0-2.86 0 8.614 8.614 0 0 0-3.762 1.613l1.382 1.838A6.317 6.317 0 0 1 84 20.15c1.43 0 2.748.472 3.81 1.27l1.381-1.84a8.614 8.614 0 0 0-3.761-1.612z" fill="#fff"/></svg>
